img/html.svg

<svg xmlns="http://www.w3.org/2000/svg" viewBox="0 0 512 512" xmlns:v="https://vecta.io/nano"><path d="M32 0l40.8 460.8L256 512l183.136-51.168L480 0z" fill="#ff5722"/><path d="M391.52 150.688H176.8l5.12 57.888H386.4l-15.392 173.568-115.104 32.128-114.944-32.128-8.032-90.784h56.32l4.192 47.104 62.56 16.96 62.56-16.992 6.528-73.312H130.624L115.456 94.208h281.056z" fill="#fafafa"/></svg>

<svg id="Capa_1" xmlns="http://www.w3.org/2000/svg" xmlns:xlink="http://www.w3.org/1999/xlink" viewBox="0 0 512 512" style="enable-background:new 0 0 512 512"><path style="fill:#ff5722" d="M32 0 72.8 460.8 256 512 439.136 460.832 480 0z"/><path style="fill:#fafafa" d="M391.52 150.688H256 176.8L181.92 208.576H256 386.4L371.008 382.144 256 414.24 255.904 414.272 140.96 382.144 132.928 291.36H189.248L193.44 338.464 255.936 355.456 256 355.424v0L318.56 338.432 325.088 265.12H256v0H130.624L115.456 94.208H256 396.512z"/><g/><g/><g/><g/><g/><g/><g/><g/><g/><g/><g/><g/><g/><g/><g/></svg>
